assets/img/braze_icons/award-01.svg

<svg fill="none" height="24" viewBox="0 0 24 24" width="24" xmlns="http://www.w3.org/2000/svg"><path clip-rule="evenodd" d="m12 1c-4.41828 0-8 3.58172-8 8 0 2.4797 1.1282 4.6959 2.89929 6.1633l-.89056 6.705c-.05056.3806.12131.7566.44226.9675.32094.2108.73426.2192 1.06353.0217l4.48548-2.6914 4.4855 2.6914c.3293.1975.7426.1891 1.0635-.0217s.4928-.5867.4423-.9674l-.8897-6.7059c1.7706-1.4674 2.8984-3.6832 2.8984-6.1625 0-4.41828-3.5817-8-8-8zm-3.23654 15.3183c.98955.4382 2.08464.6817 3.23654.6817 1.1523 0 2.2476-.2436 3.2374-.6821l.4985 3.7574-2.8098-1.6859-.029-.0177c-.1054-.0646-.3238-.1985-.5753-.2537-.212-.0466-.4315-.0466-.6435 0-.2516.0552-.47.1891-.5753.2537l-.0291.0177-2.80943 1.6857z" fill="#801ed7" fill-rule="evenodd"/></svg>

<svg width="24" height="24" viewBox="0 0 24 24" fill="none" xmlns="http://www.w3.org/2000/svg">
<path fill-rule="evenodd" clip-rule="evenodd" d="M12 1C7.58172 1 4 4.58172 4 9C4 11.4797 5.1282 13.6959 6.89929 15.1633L6.00873 21.8683C5.95817 22.2489 6.13004 22.6249 6.45099 22.8358C6.77193 23.0466 7.18525 23.055 7.51452 22.8575L12 20.1661L16.4855 22.8575C16.8148 23.055 17.2281 23.0466 17.549 22.8358C17.8699 22.625 18.0418 22.2491 17.9913 21.8684L17.1016 15.1625C18.8722 13.6951 20 11.4793 20 9C20 4.58172 16.4183 1 12 1ZM8.76346 16.3183C9.75301 16.7565 10.8481 17 12 17C13.1523 17 14.2476 16.7564 15.2374 16.3179L15.7359 20.0753L12.9261 18.3894L12.8971 18.3717C12.7917 18.3071 12.5733 18.1732 12.3218 18.118C12.1098 18.0714 11.8903 18.0714 11.6783 18.118C11.4267 18.1732 11.2083 18.3071 11.103 18.3717L11.0739 18.3894L8.26447 20.0751L8.76346 16.3183Z" fill="#801ED7"/>
</svg>
